X:1
T:Title
%%score ( 1 2 ) ( 3 4 )
L:1/8
Q:1/4=100
M:4/4
K:F
V:1 treble nm="Midi_20"
V:2 treble 
V:3 bass nm="Midi_20"
V:4 bass 
V:1
"^Minto (85. 83)""^William Henry Monk\n(1823-89)""^Holy Father, in thy mercy""^Isabel Stephana Stevenson\n(1843-90)" A2 A2 c2 c2 | %1
 F2 F2 A2 A2 | D2 DE F2 G2 | A8 || A2 c2 B2 A2 | B2 c2 d2 c2 | A6 G2 | F8 |] %8
V:2
 F2 F2 F2 E2 | E2 D2 D2 ^C2 | D2 D2 D2 D2 | (D4 ^C4) || =C2 C2 F2 F2 | F2 _E2 D=E F2 | F6 E2 | %7
 F8 |] %8
V:3
"^1. Holy Father, in Thy mercy,\nHear our anxious prayer;\nKeep our loved ones, now far distant,\n'Neath Thy care.\n\n2. Jesus, Saviour, let Thy presence\nBe their light and guide;\nKeep, O keep them, in their weakness,\nBy Thy side.\n\n3. When in sorrow, when in danger,\nWhen in loneliness,\nIn Thy love look down and comfort\nTheir distress." C2 F,2 G,2 B,2 | %1
 A,2 D,2 E,2 G,2 | F,2 A,2 A,2 D,2 | E,8 || %4
"^4. May the joy of Thy salvation\nBe their strength and stay;\nMay they love and may they praise Thee\nDay by day.\n\n5. Holy Spirit, let Thy teaching\nSanctify their life;\nSend Thy grace that they may conquer\nIn the strife.\n\n6. Father, Son, and Holy Spirit,\nGod the One in Three,\nBless them, guide them, save them, keep them\nNear to Thee." A,2 G,A, B,2 C2 | %5
 B,2 A,2 B,2 F,2 | (F,2 C2 D2) B,2 | A,8 |] %8
V:4
 F,2 D,2 C,2 C,2 | D,2 B,,2 A,,2 A,,2 | D,2 F,E, D,C, B,,2 | A,,8 || F,2 E,2 D,2 F,_E, | %5
 D,2 F,2 B,,2 A,,2 | (D,2 A,,2 B,,2 C,2) | F,8 |] %8

